!!!!SEGMENT: pl-wtm--r-2447_hertz-michal--slyszysz-slyszysz.krn
!!!cenid: 18xx:2383
!!!COM: Hertz, Michał
!!!COM-rism: pe41023359
!!!CDT: 1844/09/28-~1918
!!!CNT: Polish
!!!OTL: Słyszysz, słyszysz
!!!PDT:
!!!AGN:
!!!SMS-siglum: PL-Wtm
!!!SMS-shelfmark: R 2447
!!!NIFC-rismID: 1001085406
!!!URL-scan: http://repozytorium.nifc.pl/skany/pl-wtm-nut--r2447
!!!ONB-nifc:
!!!SMS-variant:
!!!SMS-altvar:
!!!OMD: Nie za prędko
**kern	**kern	**dynam	**kern	**text	**dynam
*part2	*part2	*part2	*part1	*part1	*part1
*staff3	*staff2	*	*staff1	*staff1	*
*I"Fortepian	*I"Fortepian	*	*I"Głos	*	*
*>[A,B,B]	*>[A,B,B]	*>[A,B,B]	*>[A,B,B]	*>[A,B,B]	*>[A,B,B]
*>A	*>A	*>A	*>A	*>A	*>A
*clefF4	*clefG2	*	*clefG2	*	*
*k[b-]	*k[b-]	*	*k[b-]	*	*
*M6/8	*M6/8	*	*M6/8	*	*
=1	=1	=1	=1	=1	=1
*	*^	*	*	*	*
!	!	!	!LO:DY:rj	!	!	!
4r	(4.a/	4r	p	2.r	.	.
(8c\	.	[8d\	.	.	.	.
4B-\)	4g/)	4d\]	.	.	.	.
8r	8d/	8ryy	.	.	.	.
=2	=2	=2	=2	=2	=2	=2
4r	(4.f/	4r	.	2.r	.	.
(8A\	.	[8B-\	.	.	.	.
4G\)	4e/)	4B-\]	.	.	.	.
8r	8B-/	8ryy	.	.	.	.
=3	=3	=3	=3	=3	=3	=3
!	!LO:TX:t=P:problem:w tt. 3-5 niejednoznaczny zapis dopisanych wysokości dźwięków	!	!LO:HP:b=2	!	!	!
4r	([4.d/	4r	<	2.r	.	.
(8F\	.	8B- [8G\	.	.	.	.
4E\)	8d/L]	(4G\]	.	.	.	.
.	8c#X/	.	.	.	.	.
8D\	8dJ 8A@ 8F@/	8ryy	.	.	.	.
=4	=4	=4	=4	=4	=4	=4
!LO:T:color=gray	!	!	!	!	!	!
!LO:S:color=gray	!	!	!	!	!	!
(<[4.D@ 4.GG@\	(4.f/	4B-\)	.	2.r	.	.
.	.	8ryy	.	.	.	.
4D]@ 4FF@\)	4e@/))	4ryy	.	.	.	.
8E@ 8EE@\	8B- 8G@/	8r	.	.	.	.
=5	=5	=5	=5	=5	=5	=5
4.A@ 4.G@ 4.C#X@ 4.GG@\	4.B-/	4.ryy	.	2.r	.	.
!	!	!	!LO:DY:rj	!	!	!
8A@ 8G@ 8C#@ 8AA@\	4.A/	4r	[ sf	.	.	.
8r@	.	.	.	.	.	.
8r@	.	8r	.	.	.	.
*	*v	*v	*	*	*	*
=6!|:	=6!|:	=6!|:	=6!|:	=6!|:	=6!|:
*>B	*>B	*>B	*>B	*>B	*>B
!	!	!	!	!	!LO:DY:b:rj
8r	8r	p	4a/	.	p
(8F\L	(>8dL 8A/	.	.	.	.
8D\J)	8fJ 8A/)	.	8f/	.	.
8r	8r	.	4b-\	.	.
(8E\L	(>8c#XL 8G/	.	.	.	.
8F\J)	8dJ 8A/)	.	8a/	.	.
!!LO:LB:g=original
=7	=7	=7	=7	=7	=7
8r	8r	.	4a/	.	.
(8F\L	(>8dL 8A/	.	.	.	.
8D\J)	8fJ 8A/)	.	8f/	.	.
8r	8r	.	4b-\	.	.
(8E\L	(>8c#XL 8G/	.	.	.	.
8F\J)	8dJ 8A/)	.	8a/	.	.
=8	=8	=8	=8	=8	=8
*	*^	*	*	*	*
*	*2\right	*	*	*	*	*
(8c\L	8r	[2.d\	.	(8a/L	.	.
8B-\	(8g/L	.	.	8g/J)	.	.
8A\J	8a/J)	.	.	8a/	.	.
4G\)	[4.b-/	.	.	(8b-\L	.	.
.	.	.	.	8g\J)	.	.
8F\	.	.	.	8dd\	.	.
*	*v	*v	*	*	*	*
=9	=9	=9	=9	=9	=9
(8E\L	(4.b-] (4.d\]	.	(4.dd\	.	.
8F\	.	.	.	.	.
8E\J)	.	.	.	.	.
(8A\L	8a) 8g@ 8c#X/)	.	8cc#X\)	.	.
8E\J)	8r	.	8r	.	.
8r	8r	.	8r	.	.
=10	=10	=10	=10	=10	=10
16r	(4ee 4g\	.	4ee\	.	.
(16AA\LL	.	.	.	.	.
16A\)	.	.	.	.	.
*clefG2	*	*	*	*	*
16a\J	.	.	.	.	.
[8aa\J	8dd 8f\)	.	8dd\	.	.
(8aa\L]	(4dd 4f\	.	4dd\	.	.
16a\L)	.	.	.	.	.
16A'\J	.	.	.	.	.
8a'\J	8cc#X 8e\)	.	8cc#X\	.	.
!!LO:LB:g=original
=11	=11	=11	=11	=11	=11
*clefF4	*	*	*	*	*
16r	(8ffL 8a\	.	(8ff\L	.	.
(16AA\LL	.	.	.	.	.
16A\)	8ee 8g\	.	8ee\J)	.	.
*clefG2	*	*	*	*	*
16a\J	.	.	.	.	.
[8aa\J	8ddJ 8f\)	.	8dd\	.	.
(8aa\L]	(8ddL 8f\	.	(8dd\L	.	.
16a\L)	8cc#X 8e\	.	8cc#X\J)	.	.
16A\J	.	.	.	.	.
8a\J	8ddJ 8f\)	.	8dd\	.	.
=12	=12	=12	=12	=12	=12
*	*^	*	*	*	*
*clefF4	*	*	*	*	*	*
16r	(4ee 4g\	4ryy	.	4ee\	.	.
16AA/	.	.	.	.	.	.
8A\L	.	.	.	.	.	.
8A\J	8cc#X 8e\)	8ryy	.	8cc#X\	.	.
!	!	!LO:S:s=1:note:problem:note-level slur	!	!	!	!
8d\L	(4b-/	(>8c#X\L	.	4b-\	.	.
(8d 8D\	.	8e\)	.	.	.	.
8c#XJ (<8C#X\)	8a/)	8e\J	.	8a/	.	.
*	*v	*v	*	*	*	*
=13	=13	=13	=13	=13	=13
8dL 8D\)	[4.a [>4.f/	.	[>4.a/	.	.
8A 8F 8D'\	.	.	.	.	.
8dJ 8A 8F'\	.	.	.	.	.
(8fL 8d 8A\	8a] 8f/]	.	8a/]	.	.
8dJ 8A 8F\)	8r	.	8r	.	.
8r	8r	.	8r	.	.
=14	=14	=14	=14	=14	=14
16r	(4ee 4g\	.	4ee\	.	.
(16AA\LL	.	.	.	.	.
16A\)	.	.	.	.	.
*clefG2	*	*	*	*	*
16a\J	.	.	.	.	.
[8aa\J	8dd 8f\)	.	8dd\	.	.
(8aa\L]	(4dd 4f\	.	4dd\	.	.
16a\L)	.	.	.	.	.
16A\J	.	.	.	.	.
8a\J	8cc#X) 8e\	.	8cc#X\	.	.
!!LO:LB:g=original
=15	=15	=15	=15	=15	=15
!LO:CL:ed	!	!	!	!	!
*clefF4	*	*	*	*	*
16r	(8ffL 8a\	.	(8ff\L	.	.
(16AA\LL	.	.	.	.	.
16A\)	8ee 8g\	.	8ee\J)	.	.
*clefG2	*	*	*	*	*
16a\J	.	.	.	.	.
[8aa\J	8ddJ 8f\)	.	8dd\	.	.
(8aa\L]	(8ddL 8f\	.	(8dd\L	.	.
16a\L)	8cc#X 8e\	.	8cc#X\J)	.	.
16A\J	.	.	.	.	.
8a\J	8ddJ 8f\)	.	8dd\	.	.
=16	=16	=16	=16	=16	=16
*	*^	*	*	*	*
!LO:CL:ed	!	!	!	!	!	!
*clefF4	*	*	*	*	*	*
8r	(8eeL 8g\	4ryy	.	(8ee\L	.	.
16r	8cc#X 8e\)	.	.	8cc#X\J)	.	.
16A 16AA\	.	.	.	.	.	.
8d 8D\	8b-J 8f\	8ryy	.	8b-\	.	.
4c#X 4C#X;<\	(8b-/L	4e\	.	(8b-\L	.	.
.	8a;/)	.	.	8a;\J)	.	.
8A 8AA\	8a/J	8g 8c#X\	.	8ee\	.	.
*	*v	*v	*	*	*	*
=17	=17	=17	=17	=17	=17
8DL 8DD\	4.a 4.f 4.d/	.	[4.dd\	.	.
8A 8F 8D\	.	.	.	.	.
8dJ 8A 8F\	.	.	.	.	.
(8fL 8d 8A\	4r	.	8dd\]	.	.
8dJ 8A 8F\)	.	.	8r	.	.
8r	8a/	.	8a/	.	.
=18	=18	=18	=18	=18	=18
8r	(4.aa\	.	(4.aa\	.	.
(8c#XL 8G 8E\	.	.	.	.	.
8dJ 8A 8F\	.	.	.	.	.
8dL 8B- 8G\	4gg\	.	4gg\)	.	.
8gJ 8d 8B-\)	.	.	.	.	.
8r	8dd\)	.	8dd\	.	.
!!LO:PB:g=original
=19	=19	=19	=19	=19	=19
*clefF4	*	*	*	*	*
8r	[4.ff\	.	[4.ff\	goń,	.
(8AL 8F 8D\	.	.	.	.	.
8dJ 8A 8F\	.	.	.	.	.
8fL 8d 8A\	4ff\]	.	4ff\]	.	.
8dJ 8A 8F\)	.	.	.	.	.
8r	8a/	.	8a/	ma-	.
=20	=20	=20	=20	=20	=20
*	*	*	*2\right	*	*
4r	([2.ff\	.	([2.ff\	-rze-	.
8AA/	.	.	.	.	.
4.d 4.A 4.F\	.	.	.	.	.
=21	=21	=21	=21	=21	=21
[4.c#X [4.A [4.G\	4.ff\]	.	4.ff\]	.	.
4c#] 4A] 4G;\]	4ee;\)	.	4ee;\)	.	.
8r	8a/	.	8a/	-niem	.
=22	=22	=22	=22	=22	=22
*	*^	*	*	*	*
4r	[2.dd/	4r	.	[2.dd\	goń!	.
8d 8A 8D\	.	8a 8f\	.	.	.	.
4.d 4.G#X 4.D\	.	4.b- 4.f\	.	.	.	.
=23	=23	=23	=23	=23	=23	=23
4r	2.dd/_	4r	.	2.dd\_	.	.
8d 8A 8D\	.	8a 8f\	.	.	.	.
4.d 4.B- 4.D\	.	4.g#X 4.f/	.	.	.	.
!!LO:LB:g=original
=24	=24	=24	=24	=24	=24	=24
!LO:S:s=2:note:problem:note-level slur	!	!	!	!	!	!
[4.d (4.B- [4.D\	4.dd/_	(4.gn\	.	8dd\]	.	.
.	.	.	.	8r	.	.
.	.	.	.	8r	.	.
4d] 4A) 4D\]	4dd/]	4f\)	.	4r	.	.
8d 8A 8F 8D\	8dd 8a 8f\	8ryy	.	8r	.	.
*	*v	*v	*	*	*	*
=25	=25	=25	=25	=25	=25
*2\right	*	*	*	*	*
2.dd> 2.a> 2.f> 2.d>;<\	2.ddd 2.aa 2.ff;/	.	2.r;	.	.
=:|!	=:|!	=:|!	=:|!	=:|!	=:|!
*-	*-	*-	*-	*-	*-
!!!system-decoration: s1{(s2,s3)}
!!!RDF**kern: > = above
!!!RDF**kern: < = below
!!!RDF**kern: @ = marked note, color=gray
!!!ENC: Marcin Jachim
!!!END: 2021-06-10
!!!ENC: Andrzej Kubiczek
!!!END: 2021-10-08
